packages/core/assets/Icons/arrow_right.svg

<svg viewBox="0 0 20 20" fill="none" xmlns="http://www.w3.org/2000/svg">
<path d="M13.4792 10.8333H4.16671C3.9306 10.8333 3.73268 10.7534 3.57296 10.5937C3.41324 10.434 3.33337 10.2361 3.33337 9.99997C3.33337 9.76386 3.41324 9.56594 3.57296 9.40622C3.73268 9.2465 3.9306 9.16664 4.16671 9.16664H13.4792L9.39587 5.0833C9.22921 4.91664 9.14935 4.72219 9.15629 4.49997C9.16323 4.27775 9.25004 4.0833 9.41671 3.91664C9.58337 3.76386 9.77782 3.684 10 3.67705C10.2223 3.67011 10.4167 3.74997 10.5834 3.91664L16.0834 9.41664C16.1667 9.49997 16.2257 9.59025 16.2605 9.68747C16.2952 9.78469 16.3125 9.88886 16.3125 9.99997C16.3125 10.1111 16.2952 10.2152 16.2605 10.3125C16.2257 10.4097 16.1667 10.5 16.0834 10.5833L10.5834 16.0833C10.4306 16.2361 10.2396 16.3125 10.0105 16.3125C9.78129 16.3125 9.58337 16.2361 9.41671 16.0833C9.25004 15.9166 9.16671 15.7187 9.16671 15.4896C9.16671 15.2604 9.25004 15.0625 9.41671 14.8958L13.4792 10.8333Z" fill="currentColor"/>
</svg>

<svg xmlns="http://www.w3.org/2000/svg" width="20" height="20" fill="none" viewBox="0 0 20 20">
  <path fill="#201F1F" d="M13.48 10.833H4.166a.806.806 0 0 1-.594-.24.806.806 0 0 1-.24-.593c0-.236.08-.434.24-.594.16-.16.358-.24.594-.24h9.312L9.396 5.084a.763.763 0 0 1-.24-.583.839.839 0 0 1 .26-.583.879.879 0 0 1 .584-.24.764.764 0 0 1 .583.24l5.5 5.5a.732.732 0 0 1 .178.27.923.923 0 0 1 .052.313.923.923 0 0 1-.052.313.732.732 0 0 1-.178.27l-5.5 5.5a.777.777 0 0 1-.572.23.849.849 0 0 1-.594-.23.811.811 0 0 1-.25-.593c0-.23.083-.428.25-.594l4.062-4.063Z"/>
</svg>
